tipitek/img/Message.svg

<svg width="32" height="32" viewBox="0 0 32 32" fill="none" xmlns="http://www.w3.org/2000/svg">
<path fill-rule="evenodd" clip-rule="evenodd" d="M22.2146 2.66675C26.6546 2.66675 30.0026 6.28942 30.0026 11.0934V20.2507C30.0026 22.7094 29.1333 24.9307 27.5533 26.5067C26.1359 27.9187 24.2973 28.6667 22.2359 28.6667H9.0986C7.04127 28.6667 5.20394 27.9201 3.78527 26.5067C2.20527 24.9307 1.33594 22.7094 1.33594 20.2507V11.0934C1.33594 6.28942 4.68394 2.66675 9.12394 2.66675H22.2146ZM22.2146 4.66675H9.12394C5.7706 4.66675 3.33594 7.36942 3.33594 11.0934V20.2507C3.33594 22.1747 3.99727 23.8934 5.19727 25.0894C6.23194 26.1227 7.5826 26.6667 9.1026 26.6667H22.2146C22.2173 26.6641 22.2279 26.6667 22.2359 26.6667C23.7573 26.6667 25.1066 26.1227 26.1413 25.0894C27.3426 23.8934 28.0026 22.1747 28.0026 20.2507V11.0934C28.0026 7.36942 25.5679 4.66675 22.2146 4.66675ZM24.3159 10.8385C24.6639 11.2665 24.5986 11.8958 24.1706 12.2451L18.2453 17.0611C17.4959 17.6558 16.5999 17.9531 15.7053 17.9531C14.8133 17.9531 13.9239 17.6585 13.1799 17.0691L7.19994 12.2478C6.76927 11.9011 6.7026 11.2705 7.04794 10.8411C7.39594 10.4131 8.02527 10.3451 8.4546 10.6905L14.4293 15.5065C15.1799 16.1011 16.2373 16.1011 16.9933 15.5011L22.9079 10.6931C23.3373 10.3425 23.9666 10.4091 24.3159 10.8385Z" fill="#30CBFF"/>
</svg>

<svg width="32" height="32" fill="none" xmlns="http://www.w3.org/2000/svg"><path fill-rule="evenodd" clip-rule="evenodd" d="M22.215 2.667c4.44 0 7.788 3.622 7.788 8.426v9.158c0 2.458-.87 4.68-2.45 6.256-1.417 1.412-3.256 2.16-5.317 2.16H9.099c-2.058 0-3.895-.747-5.314-2.16-1.58-1.576-2.45-3.798-2.45-6.256v-9.158c0-4.804 3.349-8.426 7.789-8.426h13.09zm0 2H9.124c-3.353 0-5.788 2.702-5.788 6.426v9.158c0 1.924.661 3.642 1.861 4.838 1.035 1.034 2.386 1.578 3.906 1.578h13.112c.002-.003.013 0 .02 0 1.522 0 2.872-.544 3.906-1.578 1.202-1.196 1.862-2.914 1.862-4.838v-9.158c0-3.724-2.435-6.426-5.788-6.426zm2.1 6.171a1 1 0 0 1-.144 1.407l-5.926 4.816a4.056 4.056 0 0 1-5.065.008L7.2 12.248a1.001 1.001 0 0 1-.152-1.407 1.004 1.004 0 0 1 1.407-.15l5.974 4.816c.75.594 1.808.594 2.564-.006l5.915-4.808a.999.999 0 0 1 1.408.146z" fill="#30CBFF"/></svg>
